X:2511
T:Hi son Hughee 
C:Willy Duddy and Charles (?)
C:Traditional
O:Isle of Man
Z:Clague collection
N:Version as per MS. See also KV 22,250 and revised version.
B:Kiaull Vannin #251 
L:1/4
M:4/4 
Q:220 
K:C 
c|GG FG|_B2 EG|AE DD|D3 G | c_B cd|e2 dd|cc c_B|G3G| 
c_B Bc|e2 dd|cc d_B|G3 c|GG FG|_B2 EG|AE DD|D3|| 
